dist/svg/u1F934_u1F3FD.svg

<?xml version="1.0" encoding="UTF-8"?><svg id="Layer_1" xmlns="http://www.w3.org/2000/svg" viewBox="0 0 40 40"><g><g><circle cx="20" cy="25.05028" r="12.44972" style="fill:#c3846c;"/><g><ellipse cx="8.63807" cy="25.39982" rx="4.98391" ry="4.67446" style="fill:#c3846c;"/><ellipse cx="31.36193" cy="25.39982" rx="4.98391" ry="4.67446" style="fill:#c3846c;"/></g><path d="M34.07881,21.48041c.12571-8.54769-7.22799-15.52668-15.93682-14.59143-6.69797,.7193-12.06172,6.1631-12.69334,12.86991-.06427,.6824-.08069,1.35614-.05224,2.01824,0,0,1.21679-.28989,2.29944,2.06024L15.90808,14.64812s9.96965,8.00671,16.54946,7.56983c.14491-.00962,.3122-.05991,.47727-.13055,.43862-.2471,.80708-.70507,1.144-.60699Z" style="fill:#523725;"/><g><ellipse cx="16.50232" cy="24.44802" rx="1.32488" ry="1.58986"/><ellipse cx="23.49768" cy="24.44802" rx="1.32488" ry="1.58986"/></g><path d="M21.64809,30.71652c.29775,0,.50926,.28605,.43028,.57313-.25098,.91219-1.08642,1.58226-2.07836,1.58226s-1.82738-.67007-2.07836-1.58226c-.07899-.28708,.13252-.57313,.43028-.57313h3.29617Z" style="fill:#5c2f17;"/></g><path d="M6.09743,15.62267c-.23558-1.43958-.96256-5.88216-1.29482-7.91257-.0613-.37457,.36611-.62865,.66928-.40029l3.12679,2.35524c.21659,.16314,.52866,.08193,.63826-.16609l1.71285-3.8764c.11684-.26443,.45935-.33507,.67128-.13845l3.89211,3.61079c.20401,.18926,.53225,.132,.66012-.11517l3.23455-6.25222c.15693-.30335,.59077-.30334,.7477,0l3.2345,6.25222c.12787,.24717,.45611,.30444,.66012,.11517l3.89217-3.6108c.21193-.19661,.55444-.12597,.67128,.13846l1.71286,3.8764c.10959,.24802,.42167,.32923,.63826,.16609l3.12679-2.35524c.30317-.22836,.72994,.02961,.66864,.40418l-1.30061,7.94815c-.0431,.26337-.22053,.47946-.47341,.56475-2.1071,.71063-12.26948,3.66372-26.35362-.02175-.27707-.0725-.48886-.29983-.53512-.58247Z" style="fill:#d69600;"/><ellipse cx="19.7814" cy="13.47419" rx="1.42024" ry="1.5749" style="fill:#f3f3f3;"/></g><rect y="0" width="40" height="40" style="fill:none;"/></svg>

<svg id="Layer_1" data-name="Layer 1" xmlns="http://www.w3.org/2000/svg" viewBox="0 0 40 40"><defs><style>.cls-1{fill:#c3846c;}.cls-2{fill:#523725;}.cls-3{fill:#5c2f17;}.cls-4{fill:#d69600;}.cls-5{fill:#f3f3f3;}.cls-6{fill:none;}</style></defs><circle class="cls-1" cx="20" cy="25.05" r="12.45"/><ellipse class="cls-1" cx="8.638" cy="25.4" rx="4.984" ry="4.674"/><ellipse class="cls-1" cx="31.362" cy="25.4" rx="4.984" ry="4.674"/><path class="cls-2" d="M34.079,21.48a14.351,14.351,0,0,0-28.63-1.721A14.711,14.711,0,0,0,5.4,21.777s1.217-.29,2.3,2.06l8.212-9.189s9.97,8.007,16.55,7.57a1.537,1.537,0,0,0,.477-.131C33.373,21.84,33.742,21.382,34.079,21.48Z"/><ellipse cx="16.502" cy="24.448" rx="1.325" ry="1.59"/><ellipse cx="23.498" cy="24.448" rx="1.325" ry="1.59"/><path class="cls-3" d="M21.648,30.717a.45.45,0,0,1,.43.573,2.156,2.156,0,0,1-4.156,0,.45.45,0,0,1,.43-.573Z"/><path class="cls-4" d="M6.1,15.623C5.862,14.183,5.135,9.741,4.8,7.71a.419.419,0,0,1,.669-.4L8.6,9.665A.421.421,0,0,0,9.237,9.5L10.95,5.623a.42.42,0,0,1,.671-.139L15.513,9.1a.421.421,0,0,0,.66-.115l3.235-6.252a.421.421,0,0,1,.748,0L23.39,8.98a.421.421,0,0,0,.66.115l3.892-3.611a.421.421,0,0,1,.672.139L30.326,9.5a.422.422,0,0,0,.639.166L34.092,7.31a.42.42,0,0,1,.668.4l-1.3,7.948a.71.71,0,0,1-.474.565c-2.107.711-12.269,3.664-26.353-.022A.727.727,0,0,1,6.1,15.623Z"/><ellipse class="cls-5" cx="19.781" cy="13.474" rx="1.42" ry="1.575"/><rect class="cls-6" width="40" height="40"/></svg>
